ui/StatusQ/src/assets/img/icons/settings-advance.svg

<svg fill="none" height="18" viewBox="0 0 21 18" width="21" xmlns="http://www.w3.org/2000/svg"><g clip-rule="evenodd" fill="#000" fill-rule="evenodd"><path d="m4.25 1c0-.414214-.33579-.75-.75-.75s-.75.335786-.75.75v.67793c0 .23505-.1653.43474-.3876.5111-1.374552.47217-2.3624 1.77621-2.3624 3.31097s.987848 2.8388 2.3624 3.31097c.2223.07636.3876.27606.3876.5111v7.67793c0 .4142.33579.75.75.75s.75-.3358.75-.75v-7.67793c0-.23504.1653-.43474.3876-.5111 1.37455-.47217 2.3624-1.77621 2.3624-3.31097s-.98785-2.8388-2.3624-3.31097c-.2223-.07636-.3876-.27606-.3876-.5111zm-.75 6.5c1.10457 0 2-.89543 2-2s-.89543-2-2-2-2 .89543-2 2 .89543 2 2 2zm14.75-6.5c0-.414214-.3358-.75-.75-.75s-.75.335786-.75.75v.67793c0 .23505-.1653.43474-.3876.5111-1.3746.47217-2.3624 1.77621-2.3624 3.31097s.9878 2.8388 2.3624 3.31097c.2223.07636.3876.27606.3876.5111v7.67793c0 .4142.3358.75.75.75s.75-.3358.75-.75v-7.67793c0-.23504.1653-.43474.3876-.5111 1.3746-.47217 2.3624-1.77621 2.3624-3.31097s-.9878-2.8388-2.3624-3.31097c-.2223-.07636-.3876-.27606-.3876-.5111zm-.75 6.5c1.1046 0 2-.89543 2-2s-.8954-2-2-2-2 .89543-2 2 .8954 2 2 2z"/><path d="m10.5.25c.4142 0 .75.335786.75.75v6.67793c0 .23505.1653.43474.3876.5111 1.3746.47217 2.3624 1.77621 2.3624 3.31097 0 1.6493-1.1408 3.0321-2.6763 3.4025-.0441.0107-.0737.0521-.0737.0975v2c0 .4142-.3358.75-.75.75s-.75-.3358-.75-.75v-2c0-.0454-.02957-.0868-.0737-.0975-1.53554-.3704-2.6763-1.7532-2.6763-3.4025 0-1.53476.98785-2.8388 2.3624-3.31097.2223-.07636.3876-.27605.3876-.5111v-6.67793c0-.414214.3358-.75.75-.75zm2 11.25c0 1.1046-.8954 2-2 2-1.10457 0-2-.8954-2-2s.89543-2 2-2c1.1046 0 2 .8954 2 2z"/></g></svg>

<svg width="21" height="18" viewBox="0 0 21 18" fill="none" xmlns="http://www.w3.org/2000/svg">
<g id="Icon">
<path id="Union" fill-rule="evenodd" clip-rule="evenodd" d="M4.25 1C4.25 0.585786 3.91421 0.25 3.5 0.25C3.08579 0.25 2.75 0.585786 2.75 1V1.67793C2.75 1.91298 2.5847 2.11267 2.3624 2.18903C0.987848 2.6612 0 3.96524 0 5.5C0 7.03476 0.987848 8.3388 2.3624 8.81097C2.5847 8.88733 2.75 9.08703 2.75 9.32207V17C2.75 17.4142 3.08579 17.75 3.5 17.75C3.91421 17.75 4.25 17.4142 4.25 17V9.32207C4.25 9.08703 4.4153 8.88733 4.6376 8.81097C6.01215 8.3388 7 7.03476 7 5.5C7 3.96524 6.01215 2.6612 4.6376 2.18903C4.4153 2.11267 4.25 1.91297 4.25 1.67793V1ZM3.5 7.5C4.60457 7.5 5.5 6.60457 5.5 5.5C5.5 4.39543 4.60457 3.5 3.5 3.5C2.39543 3.5 1.5 4.39543 1.5 5.5C1.5 6.60457 2.39543 7.5 3.5 7.5ZM18.25 1C18.25 0.585786 17.9142 0.25 17.5 0.25C17.0858 0.25 16.75 0.585786 16.75 1V1.67793C16.75 1.91298 16.5847 2.11267 16.3624 2.18903C14.9878 2.6612 14 3.96524 14 5.5C14 7.03476 14.9878 8.3388 16.3624 8.81097C16.5847 8.88733 16.75 9.08703 16.75 9.32207V17C16.75 17.4142 17.0858 17.75 17.5 17.75C17.9142 17.75 18.25 17.4142 18.25 17V9.32207C18.25 9.08703 18.4153 8.88733 18.6376 8.81097C20.0122 8.3388 21 7.03476 21 5.5C21 3.96524 20.0122 2.6612 18.6376 2.18903C18.4153 2.11267 18.25 1.91297 18.25 1.67793V1ZM17.5 7.5C18.6046 7.5 19.5 6.60457 19.5 5.5C19.5 4.39543 18.6046 3.5 17.5 3.5C16.3954 3.5 15.5 4.39543 15.5 5.5C15.5 6.60457 16.3954 7.5 17.5 7.5Z" fill="black"/>
<path id="Union_2" fill-rule="evenodd" clip-rule="evenodd" d="M10.5 0.25C10.9142 0.25 11.25 0.585786 11.25 1V7.67793C11.25 7.91298 11.4153 8.11267 11.6376 8.18903C13.0122 8.6612 14 9.96524 14 11.5C14 13.1493 12.8592 14.5321 11.3237 14.9025C11.2796 14.9132 11.25 14.9546 11.25 15V17C11.25 17.4142 10.9142 17.75 10.5 17.75C10.0858 17.75 9.75 17.4142 9.75 17V15C9.75 14.9546 9.72043 14.9132 9.6763 14.9025C8.14076 14.5321 7 13.1493 7 11.5C7 9.96524 7.98785 8.6612 9.3624 8.18903C9.5847 8.11267 9.75 7.91298 9.75 7.67793V1C9.75 0.585786 10.0858 0.25 10.5 0.25ZM12.5 11.5C12.5 12.6046 11.6046 13.5 10.5 13.5C9.39543 13.5 8.5 12.6046 8.5 11.5C8.5 10.3954 9.39543 9.5 10.5 9.5C11.6046 9.5 12.5 10.3954 12.5 11.5Z" fill="black"/>
</g>
</svg>
